X:7892
T:La Ronda
C:anon.
O:Spain
A:Asturias
Z:Transcribed by Frank Nordberg - http://www.musicaviva.com
F:http://abc.musicaviva.com/tunes/spain/la-ronda.abc
M:2/4
L:1/8
K:F
"^Allegretto"F3A|c3d|c2B2|c2c2|
B3G|A3F|G2E2|F2F2:|
|:BBGG|AAFF|GGEE|F2F2:|
|:F2A2|c3d|c2BA|G4|
E2G2|B3c|B2AG|F4:|
|:BBGG|AAFF|GGEE|[1F2F2:|[2F4|]
W:
W:
W:  From Musica Viva - http://www.musicaviva.com
W:  the Internet center for free sheet music downloads.

